X: 3
T: The Trumpet
R: hornpipe
M: 4/4
L: 1/8
K: Gmaj
(3GGG G2 (3GGG G2 | B>GB>d g>dB>G | (3DDD D2 (3DDD D2 | F*DF>A d>B (3cBA |(3GGG G2 (3GGG G2 |B>GB*d g2 a>g|f>ag>f e>gf>e| (3ddd d>^c d2 :|(3ddd d2 (3ddd d2 | e*fg>f e>dc*B | c>de>d c>BA*G | F>GA>G F*DE>F |(3GGG G2 (3=FFF F2|(3EEE E2 (3^DDD D2 |(3DED fe (3ded (3cBA | G2 B2 G2 :|


Tune 1408	Setting 14779

